public/assets/meaning.svg

<svg width="380" height="491" fill="none" xmlns="http://www.w3.org/2000/svg"><path opacity=".747" fill-rule="evenodd" clip-rule="evenodd" d="m195.923 31.074 2.566 1.26c41.98 20.728 87.415 48.236 113.723 93.272 26.356 45.136 33.586 107.804 37.769 165.393l.252 3.519c4.197 58.647 5.564 111.527-9.658 145.939-15.167 34.386-46.922 50.305-85.86 49.83-38.938-.475-85.107-17.447-124.544-59.187-39.492-41.714-72.254-108.195-96.456-175.875C9.513 187.544-6.14 118.793 2.317 73.108 10.88 27.499 43.545 5.083 79.162.779c35.56-4.28 74.126 9.526 116.761 30.295Z" fill="#CC857D" fill-opacity=".5"/><path d="M217.486 336.656c41.516 0 75.17-33.654 75.17-75.17 0-41.515-33.654-75.17-75.17-75.17-41.515 0-75.17 33.655-75.17 75.17 0 41.516 33.655 75.17 75.17 75.17Z" fill="#1B3968"/><path d="M217.486 317.629c31.007 0 56.143-25.136 56.143-56.143 0-31.006-25.136-56.142-56.143-56.142-31.006 0-56.142 25.136-56.142 56.142 0 31.007 25.136 56.143 56.142 56.143Z" fill="#CEE5D0"/><path d="m296.669 331.696-9.013 9.013c-4.219 4.219-4.219 11.059 0 15.278l52.525 52.525c4.219 4.219 11.059 4.219 15.278 0l9.013-9.013c4.219-4.219 4.219-11.059 0-15.278l-52.525-52.525c-4.219-4.219-11.059-4.219-15.278 0Z" fill="#1B3968"/><path d="m299.707 329.566-.02.02a10.715 10.715 0 0 0-2.988 2.109l-9.004 9.004a10.715 10.715 0 0 0-2.109 2.988l-.02.02-22.461-22.461a75.744 75.744 0 0 0 14.141-14.141l22.461 22.461ZM257.334 261.33a3.418 3.418 0 0 1-3.4-3.115 36.684 36.684 0 0 0-26.815-32.031 3.422 3.422 0 0 1-1.835-5.406 3.434 3.434 0 0 1 1.016-.877 3.433 3.433 0 0 1 2.614-.313 43.552 43.552 0 0 1 31.836 38.029 3.423 3.423 0 0 1-3.104 3.711l-.312.002ZM202.598 227.76a3.42 3.42 0 0 1-3.356-2.77 3.415 3.415 0 0 1 2.082-3.82 43.163 43.163 0 0 1 11.977-2.91 3.418 3.418 0 1 1 .652 6.806 36.245 36.245 0 0 0-10.082 2.45 3.406 3.406 0 0 1-1.273.244Z" fill="#6D7A84"/></svg>

<svg width="380" height="491" viewBox="0 0 380 491" fill="none" xmlns="http://www.w3.org/2000/svg">
<path opacity="0.74707" fill-rule="evenodd" clip-rule="evenodd" d="M195.923 31.0737L198.489 32.3342C240.469 53.0618 285.904 80.5698 312.212 125.606C338.568 170.742 345.798 233.41 349.981 290.999L350.233 294.518C354.43 353.165 355.797 406.045 340.575 440.457C325.408 474.843 293.653 490.762 254.715 490.287C215.777 489.812 169.608 472.84 130.171 431.1C90.6794 389.386 57.9172 322.905 33.7152 255.225C9.51326 187.544 -6.14023 118.793 2.31673 73.1077C10.88 27.4991 43.5448 5.08297 79.1615 0.779218C114.722 -3.50092 153.288 10.3047 195.923 31.0737Z" fill="#CC857D" fill-opacity="0.5"/>
<path d="M217.486 336.656C259.002 336.656 292.656 303.002 292.656 261.486C292.656 219.971 259.002 186.316 217.486 186.316C175.971 186.316 142.316 219.971 142.316 261.486C142.316 303.002 175.971 336.656 217.486 336.656Z" fill="#1B3968"/>
<path d="M217.486 317.629C248.493 317.629 273.629 292.493 273.629 261.486C273.629 230.48 248.493 205.344 217.486 205.344C186.48 205.344 161.344 230.48 161.344 261.486C161.344 292.493 186.48 317.629 217.486 317.629Z" fill="#CEE5D0"/>
<path d="M296.669 331.696L287.656 340.709C283.437 344.928 283.437 351.768 287.656 355.987L340.181 408.512C344.4 412.731 351.24 412.731 355.459 408.512L364.472 399.499C368.691 395.28 368.691 388.44 364.472 384.221L311.947 331.696C307.728 327.477 300.888 327.477 296.669 331.696Z" fill="#1B3968"/>
<path d="M299.707 329.566L299.687 329.586C298.578 330.112 297.567 330.826 296.699 331.695L287.695 340.699C286.826 341.567 286.112 342.578 285.586 343.687L285.566 343.707L263.105 321.246C268.423 317.178 273.178 312.423 277.246 307.105L299.707 329.566Z" fill="#6D7A84"/>
<path d="M257.334 261.33C256.48 261.329 255.658 261.009 255.029 260.433C254.399 259.856 254.009 259.065 253.934 258.215C253.253 250.782 250.321 243.734 245.53 238.01C240.739 232.287 234.316 228.161 227.119 226.184C226.682 226.069 226.272 225.87 225.912 225.596C225.553 225.322 225.251 224.98 225.025 224.589C224.798 224.198 224.651 223.766 224.593 223.318C224.535 222.87 224.566 222.415 224.684 221.979C224.803 221.543 225.007 221.135 225.284 220.778C225.562 220.422 225.907 220.123 226.3 219.901C226.694 219.679 227.127 219.537 227.576 219.483C228.024 219.429 228.479 219.465 228.914 219.588C237.459 221.935 245.085 226.834 250.773 233.629C256.462 240.424 259.942 248.792 260.75 257.617C260.79 258.065 260.741 258.516 260.607 258.944C260.473 259.373 260.255 259.771 259.967 260.116C259.679 260.46 259.325 260.745 258.927 260.953C258.529 261.161 258.094 261.288 257.646 261.328C257.54 261.329 257.435 261.33 257.334 261.33Z" fill="#6D7A84"/>
<path d="M202.598 227.76C201.804 227.76 201.034 227.483 200.422 226.978C199.81 226.473 199.392 225.77 199.242 224.99C199.091 224.211 199.217 223.403 199.597 222.706C199.977 222.009 200.587 221.466 201.324 221.17C205.157 219.632 209.19 218.652 213.301 218.26C214.203 218.173 215.103 218.449 215.803 219.026C216.502 219.603 216.944 220.434 217.03 221.337C217.117 222.24 216.841 223.14 216.264 223.839C215.687 224.538 214.856 224.98 213.953 225.066C210.492 225.395 207.097 226.22 203.871 227.516C203.466 227.678 203.034 227.761 202.598 227.76V227.76Z" fill="#6D7A84"/>
</svg>
